X: 18024
T: Hull's
R: reel
M: 4/4
K: Emajor
e|B<E Ec B2 Bc|BE (3EEE cBGe|BE (3EEE B2GB|cBce fefg|
B<E Ec B2 Bc|BE (3EEE cBce|fgfe c2 fg|eccB ceec|
B<E Ec B2 Bc|BE (3EEE cBGe|BE (3EEE B2 GB|cBce fefg|
B<E Ec B2 Bc|BE (3EEE cBcE|fgfe c2 gf|eccB ceef|
|:gB (3BBB g2fe|fc (3ccc c2 Bc|fc (3ccc c2 Bc|
eB (3BBB Bcef|gB (3BBB g2 fe|fc (3ccc c2 ce|
[1fgfe c2 fg|eccB ceef:|2 fgfe c2 gf|eccB ceec||

